outputs/icons/action/calendar_day_round.svg

<svg xmlns="http://www.w3.org/2000/svg" width="1200" height="1200" fill="none"><g fill="#000" clip-path="url(#a)"><path d="M400 650c27.614 0 50-22.385 50-50s-22.386-50-50-50-50 22.385-50 50 22.386 50 50 50"/><path fill-rule="evenodd" d="M900 200h50c55 0 100 45 100 100v700c0 55-45 100-100 100H250c-55.5 0-100-45-100-100l.5-700c0-55 44-100 99.5-100h50v-50c0-27.5 22.5-50 50-50s50 22.5 50 50v50h400v-50c0-27.5 22.5-50 50-50s50 22.5 50 50zm-600 800h600c27.5 0 50-22.5 50-50V450H250v500c0 27.5 22.5 50 50 50"/></g><defs><clipPath id="a"><path fill="#fff" d="M0 0h1200v1200H0z"/></clipPath></defs></svg>

<svg width="1200" height="1200" viewBox="0 0 1200 1200" fill="none" xmlns="http://www.w3.org/2000/svg"><g clip-path="url(#clip0_787_1773)"><path fill-rule="evenodd" d="M900 200H950C1005 200 1050 245 1050 300V1000C1050 1055 1005 1100 950 1100H250C194.5 1100 150 1055 150 1000L150.5 300C150.5 245 194.5 200 250 200H300V150C300 122.5 322.5 100 350 100C377.5 100 400 122.5 400 150V200H800V150C800 122.5 822.5 100 850 100C877.5 100 900 122.5 900 150V200ZM300 1000H900C927.5 1000 950 977.5 950 950V450H250V950C250 977.5 272.5 1000 300 1000ZM400 650C427.614 650 450 627.615 450 600C450 572.385 427.614 550 400 550C372.386 550 350 572.385 350 600C350 627.615 372.386 650 400 650Z" fill="#1D1E23"/></g><defs><clipPath id="clip0_787_1773"><path width="24" fill="white" d="M0 0H1200V1200H0V0z"/></clipPath></defs></svg>
